X:1
T:Have Ye Been to Nazareth?
T:Have Ye Been to Nazareth?
T:Joseph Lincoln Hall
T:Elsie Duncan Yale, 1921
T:Public Domain Courtesy of the Cyber Hymnal™
T:Public Domain Courtesy of the Cyber Hymnal™
C:Joseph Lincoln Hall
Z:Public Domain
Z:Courtesy of the Cyber Hymnal™
%%score ( 1 2 ) ( 3 4 )
L:1/8
Q:1/4=105
M:3/4
K:Bb
V:1 treble 
V:2 treble 
V:3 bass 
V:4 bass 
V:1
 [Fd]>[=E^c] [Fd]2 [Bd]2 | [Be]>[Ae] [Ae]4 | [Ae]>[Ge] [Ae]2 [ce]2 | [Fd]6 | %4
w: 1.~Have ye been to|Naz- a- reth,|Low- ly, yet so|fair?|
w: 2.~Did ye find at|Naz- a- reth,|Christ the Son of|God?|
w: 3.~Is there light from|Naz- a- reth,|Dai- ly life to|crown?|
 [Fd]>[=E^c] [Fd]2 [Bd]2 | [Af]>[Bf] [cf]4 | [c=e]>[Be] [Ae]2 [Ge]2 | (f2 d2 e2) | %8
w: Yes, we sought His|hum- ble town,|Found our mas- ter|there! * *|
w: Yea, He was the|Son of Man,|Earth- ly paths He|trod. * *|
w: Yes, the glo- ry|streams a- far,|Dis- tant years a-|down. * *|
 [ce]>[=Bd] [ce]2 [df]2 | [ce]>[Bd] [Fd]4 | [Ge]>[Af] [Bg]2 [cg]2 | [d^f]6 | %12
w: Did He dwell in|pal- ace fair,|Hold- ing king- ly|sway?|
w: Did ye find a|bless- ing there|Ev- er to a-|bide?|
w: Will the Lord of|Naz- a- reth,|Friend and com- rade|be?|
 [df]>[df] [eg]2 [df]2 | [c=e]>[Ge] [Ge]4 | [Ae]>[Ge] [Fe]2 [ce]2 | [Bd]6 || %16
w: Nay, we found a|car- pent- er,|Toil- ing day by|day!|
w: Yea, by Him the|toil- some tasks|E’er are glo- ri-|fied.|
w: All un- seen He|dwells with us,|As in Gal- i-|lee!|
"^Refrain" [Fd]>[=E^c] [Fd]2 [Bd]2 | [Be]>[Ae] [Ae]4 | [ce]>[=Bd] [ce]2 [^cg]2 | [d^f]6 | %20
w: ||||
w: In life’s Naz- a-|reth we seek,|Christ, the Mas- ter|meek,|
w: ||||
 [df]>[f_a] [eg]2 [df]2 | [c=e]>[Ge] [Ge]4 | [Ae]>[Ge] [Fe]2 [ce]2 | [Bd]6 |] %24
w: ||||
w: In our toil from|day to day,|Find our Lord for|aye!|
w: ||||
V:2
 x6 | x6 | x6 | x6 | x6 | x6 | x6 | F6 | x6 | x6 | x6 | x6 | x6 | x6 | x6 | x6 || x6 | x6 | x6 | %19
 x6 | x6 | x6 | x6 | x6 |] %24
V:3
 [B,,B,]>[B,,B,] [B,,B,]2 [B,,F,]2 | [C,F,]>[C,F,] [C,F,]4 | [F,C]>[F,C] [F,C]2 [F,,A,]2 | %3
 [B,,B,]6 | [B,,B,]>[B,,B,] [B,,B,]2 [B,,F,]2 | [C,F,]>[C,G,] [F,A,]4 | %6
 [C,G,]>[C,G,] [C,C]2 [C,B,]2 | (A,2 B,2 C2) | [F,A,]>[F,^G,] [F,A,]2 [F,A,]2 | %9
 [B,,F,]>[B,,F,] [B,,B,]4 | [E,B,]>[E,B,] [E,B,]2 [E,A,]2 | [D,A,]6 | %12
 [G,=B,]>[G,B,] [G,B,]2 [G,B,]2 | [C,G,]>[C,G,] [C,B,]4 | [F,C]>[F,B,] [F,A,]2 [F,,A,]2 | %15
 [B,,F,]6 || [B,,A,]>[B,,A,] [B,,B,]2 [B,,F,]2 | [C,F,]>[C,F,] [C,F,]4 | %18
 [F,A,]>[F,^G,] [F,A,]2 [E,A,]2 | [D,A,]6 | [G,=B,]>[G,B,] [G,B,]2 [G,B,]2 | %21
 [C,G,]>[C,G,] [C,B,]4 | [F,C]>[F,B,] [F,A,]2 [F,,A,]2 | [B,,F,]6 |] %24
V:4
 x6 | x6 | x6 | x6 | x6 | x6 | x6 | F,6 | x6 | x6 | x6 | x6 | x6 | x6 | x6 | x6 || x6 | x6 | x6 | %19
 x6 | x6 | x6 | x6 | x6 |] %24

